app/assets/images/visual-editor/icons/bold-cyrl-zhe.svg

<?xml version="1.0" encoding="iso-8859-1"?>
<!DOCTYPE svg PUBLIC "-//W3C//DTD SVG 1.1//EN" "http://www.w3.org/Graphics/SVG/1.1/DTD/svg11.dtd">
<svg version="1.1" xmlns="http://www.w3.org/2000/svg" xmlns:xlink="http://www.w3.org/1999/xlink" x="0px" y="0px" width="24px"
    height="24px" viewBox="0 0 24 24" style="enable-background:new 0 0 24 24;" xml:space="preserve">
<g id="bold-cyrl-zhe" style="opacity:0.75;">
   <path id="cyrl-zhe" style="fill-rule:evenodd;clip-rule:evenodd;" d="m 13,6 0,5.154142 c 0.32797,-0.03251 0.536834,-0.181236 0.705262,-0.446825 0.168414,-0.265575 0.401101,-0.8726208 0.698062,-1.8211386 0.390018,-1.2411821 0.78891,-2.0325093 1.196675,-2.3739838 0.403314,-0.3360316 1.074782,-0.5040532 2.014406,-0.5040651 0.04431,0 0.239323,-0.0027 0.385595,-0.00813 l 0,1.7804879 -0.385595,-0.00813 c -0.398904,0 -0.691425,0.062341 -0.877563,0.1869919 -0.186161,0.1192511 -0.336853,0.3035328 -0.452078,0.5528456 -0.115245,0.2493317 -0.285883,0.7615264 -0.511911,1.5365851 -0.119677,0.411932 -0.250425,0.756105 -0.392244,1.032521 -0.137406,0.27643 -0.383389,0.536591 -0.73795,0.780487 0.438772,0.157189 0.79999,0.466131 1.083656,0.92683 0.288078,0.455289 0.60276,1.102985 0.944045,1.943089 L 18,18.000005 l -2.313574,0 -1.170083,-3.081302 c -0.0133,-0.04336 -0.05097,-0.127368 -0.113019,-0.252032 -0.03547,-0.0813 -0.115244,-0.268289 -0.239336,-0.560976 C 13.915781,13.536594 13.711903,13.173451 13.552354,13.016264 13.39279,12.859088 13.234896,12.780492 13,12.780487 L 13,18 l -2,0 0,-5.219513 c -0.226044,0 -0.381722,0.07589 -0.545707,0.227647 -0.163993,0.151767 -0.367871,0.51762 -0.6116338,1.097561 -0.1374004,0.325207 -0.2193945,0.512199 -0.2459841,0.560976 -0.039888,0.0813 -0.077569,0.165315 -0.1130191,0.252032 l -1.170083,3.081302 -2.3135734,0 1.3296399,-3.268294 C 7.6576155,13.924124 7.9656484,13.284558 8.2537392,12.813008 8.5462573,12.336049 8.91634,12.018976 9.3639885,11.861788 9.0094148,11.617892 8.7612156,11.36044 8.6193902,11.08943 8.4819915,10.813015 8.3512437,10.466132 8.2271464,10.04878 8.0055377,9.2899812 7.8371168,8.7832066 7.7218833,8.5284548 7.6110782,8.273722 7.4603858,8.0840203 7.2698057,7.9593491 7.0836549,7.834698 6.777838,7.7723674 6.3523541,7.7723572 6.2991678,7.7723674 6.1152351,7.7750776 6,7.7804852 L 6,5.9999973 c 0.14626,0.00543 0.3412733,0.00814 0.3855951,0.00813 0.9529071,0 1.6310228,0.1707434 2.0343491,0.5121951 0.398889,0.3468946 0.7911327,1.1355117 1.1767309,2.3658538 0.3013814,0.9539378 0.5340679,1.5636928 0.6980619,1.8292688 0.168416,0.260169 0.37728,0.406186 0.705263,0.438699 L 11,6"/>
</g>
</svg>

<?xml version="1.0" encoding="utf-8"?>
<svg xmlns="http://www.w3.org/2000/svg" width="24" height="24" viewBox="0 0 24 24">
    <g id="bold-cyrl-zhe" opacity=".75">
        <path id="cyrl-zhe" d="M13 6v5.154c.328-.033.537-.181.705-.447.168-.266.401-.873.698-1.821.39-1.241.789-2.033 1.197-2.374.403-.336 1.075-.504 2.014-.504l.386-.008v1.78l-.386-.008c-.399 0-.691.062-.878.187-.186.119-.337.304-.452.553-.115.249-.286.762-.512 1.537-.12.412-.25.756-.392 1.033-.137.276-.383.537-.738.78.439.157.8.466 1.084.927.288.455.603 1.103.944 1.943l1.33 3.268h-2.314l-1.17-3.081-.113-.252-.239-.561c-.248-.569-.452-.932-.612-1.089-.16-.157-.317-.236-.552-.236v5.22h-2v-5.22c-.226 0-.382.076-.546.228-.164.152-.368.518-.612 1.098l-.246.561-.113.252-1.17 3.081h-2.314l1.33-3.268c.328-.808.636-1.447.924-1.919.293-.477.663-.794 1.11-.951-.355-.244-.603-.501-.745-.772-.137-.276-.268-.623-.392-1.041-.222-.759-.39-1.266-.505-1.52-.111-.255-.261-.444-.452-.569-.186-.125-.492-.187-.917-.187l-.352.008v-1.78l.386.008c.953 0 1.631.171 2.034.512.399.347.791 1.136 1.177 2.366.301.954.534 1.564.698 1.829.168.26.377.406.705.439v-5.154"/>
    </g>
</svg>
